Papirus/24x24/apps/org.kde.karp.svg

<svg width="24" height="24" version="1.1" xmlns="http://www.w3.org/2000/svg">
 <path d="m6.27321 2.50215h-1.27321v18.43905l1.27321 0.2262zm-0.04215-0.00215v18.6637h11.78674c0.5441 0 0.9822-0.926 0.9822-1.7954v-15.29915c0-0.86931-0.4381-1.56915-0.9822-1.56915zm-1.23106 3.92533v16.07467h12.8824c0.5947 0 1.0735-0.6999 1.0735-1.5693v-12.93603c0-0.86943-0.4788-1.56934-1.0735-1.56934z" style="opacity:.2"/>
 <path d="M 5,6 V 22 H 17.9231 C 18.5197,22 19,21.3034 19,20.438 V 7.56203 C 19,6.69663 18.5197,6 17.9231,6 Z" style="fill:#a80000"/>
 <path d="m6 2v19h12c0.554 0 1-0.9427 1-1.8277v-15.57488c0-0.88497-0.446-1.59742-1-1.59742z" style="fill:#e4e4e4"/>
 <path d="m6 2v18h12c0.554 0 1-0.8931 1-1.7315v-14.75515c0-0.8384-0.446-1.51335-1-1.51335z" style="fill:#c40f0f"/>
 <path d="m5 2 0.5 1.37592c1.32037 4.1073 5.2369 8.47358 7.0552 7.58758-1.1655 0.0879-3.41132-4.96744-3.41132-4.96744s5.68122 3.56202 3.43222 4.95364c0.3417-0.0393 0.6861-0.2516 1.0114-0.6679 1.389-1.80342-1.1304-5.65102-5.27096-8.27951z" style="fill:#ff5c5c;stop-color:#000000"/>
 <path d="m6 2h-1v20h1z" style="fill:#a80000"/>
 <path d="m10.0138 17.163278-2.62e-4 -0.0014 2.177648 1.526079 6.53947-9.337601c0.240808-0.3439557 0.15726-0.8177853-0.186653-1.0585951l-0.933899-0.6539448c-0.171957-0.1204046-0.376314-0.1600344-0.567992-0.1262366-0.191677 0.0337968-0.370156 0.1409318-0.49056 0.3128875l-6.537752 9.338787-0.007051 1.167631-0.006749 1.169115 1.096299-0.406202 1.093393-0.405691 0.0015-2.63e-4" style="opacity:.2"/>
 <path d="m16.10218 7.9467304 0.435859-0.6224694c0.240806-0.343906 0.715152-0.4275461 1.059057-0.1867407l0.933706 0.6537876c0.343905 0.240805 0.427546 0.7151521 0.18674 1.0590587l-0.435857 0.6224692z" style="fill:#999999"/>
 <path d="m11.089322 18.594261-1.089322-0.762752v-1.16849l2.185129 1.525502z" style="fill:#c4c4c4"/>
 <path d="m10 19v-1.168491l1.095802 0.762752z" fill="#424048"/>
 <path d="M 15.666417,8.5696552 10,16.662137 l 0.560239,0.392285 0.06217,0.04439 0.934327,0.653367 0.62143,0.436841 5.66722,-8.09363 z" style="fill:#999999"/>
 <path d="m15.666344 8.5693193 0.435836-0.6224704 2.179527 1.5261052-0.436184 0.6225999z" style="fill:#c4c4c4"/>
 <path d="m17.1875 7c-0.0488-8.438e-4 -0.096612 0.0032693-0.144531 0.0117188-0.191677 0.0337968-0.371784 0.1405442-0.492188 0.3125l-6.537109 9.3378902 0.234375 0.164063 6.302734-9.0019532c0.120404-0.1719558 0.300511-0.2787032 0.492188-0.3125 0.191678-0.0337979 0.394449 0.0065485 0.566406 0.1269531l0.935547 0.6523437c0.136081 0.0952846 0.228709 0.229231 0.279297 0.375 0.109922-0.3134492 0.006177-0.6751093-0.279297-0.875l-0.935547-0.6523437c-0.128968-0.0903035-0.275475-0.1361405-0.421875-0.1386719zm-7.173828 9.664062-0.007813 1.166016-0.005859 1.169922h0.001953l0.003906-0.669922 0.007813-1.166016 1.708984 1.197266-1.708984-1.199219 0.234375-0.333984-0.234375-0.164063z" style="fill:#ffffff;opacity:.2"/>
 <path d="m6.2304688 2v0.0019531h-1.2304688v0.5h1.2304688v-0.0019531h11.787109c0.5441 0 0.982422 0.6990494 0.982422 1.5683594v-0.5c0-0.86931-0.438322-1.5683594-0.982422-1.5683594h-11.787109z" style="fill:#ffffff;opacity:.2"/>
</svg>

<svg xmlns="http://www.w3.org/2000/svg" width="24" height="24" version="1.1">
 <path style="opacity:0.2" d="M 5,2.5 V 22.5 H 17.924 C 18.521,22.5 19,21.803 19,20.938 V 4.0137 C 19,3.1753 18.554,2.5 18,2.5 Z"/>
 <path style="fill:#a80000" d="M 5,18 V 22 H 17.924 C 18.521,22 19,21.303 19,20.438 V 18 Z"/>
 <path style="fill:#e4e4e4" d="M 6,20 V 21 H 18 C 18.554,21 19,20.057 19,19.172 V 18 L 18,17 Z"/>
 <path style="fill:#c40f0f" d="M 6,2 V 20 H 18 C 18.554,20 19,19.107 19,18.268 V 3.5133 C 19,2.6749 18.554,2 18,2 Z"/>
 <path style="fill:#ff5c5c" d="M 5,2 5.5,3.3759 C 6.8204,7.4832 10.737,11.849 12.555,10.964 11.39,11.051 9.1439,5.9961 9.1439,5.9961 9.1439,5.9961 14.825,9.5581 12.576,10.95 12.918,10.91 13.262,10.698 13.588,10.282 14.977,8.4784 12.457,4.6308 8.3165,2.0023 Z"/>
 <path style="fill:#a80000" d="M 6,2 H 5 V 22 H 6 Z"/>
 <path style="opacity:0.2" d="M 10.014,17.163 V 17.162 L 12.191,18.688 18.731,9.3504 C 18.971,9.0064 18.888,8.5326 18.544,8.2918 L 17.61,7.6378 C 17.438,7.5174 17.234,7.4778 17.042,7.5116 16.85,7.5454 16.672,7.6525 16.552,7.8245 L 10.014,17.163 10,19.5 12.191,18.688"/>
 <path style="fill:#c4c4c4" d="M 15.666,8.5693 16.102,7.9468 17.45,8.3401 18.282,9.473 17.846,10.096 16.427,9.804 Z"/>
 <path style="fill:#999999" d="M 16.102,7.9467 16.538,7.3243 C 16.779,6.9804 17.253,6.8967 17.597,7.1375 L 18.531,7.7913 C 18.875,8.0321 18.958,8.5065 18.718,8.8504 L 18.282,9.4728 Z"/>
 <path style="fill:#c4c4c4" d="M 11.089,18.594 10.381,18.456 10,17.832 V 16.663 L 11.398,17 12.185,18.189 Z"/>
 <path fill="#424048" d="M 10,19 V 17.832 L 11.096,18.594 Z"/>
 <path style="fill:#999999" d="M 15.666,8.5697 10,16.662 12.178,18.189 17.845,10.095 Z"/>
 <path style="fill:#ffffff;opacity:0.2" d="M 17.174 7 C 16.93 6.996 16.688 7.1093 16.537 7.3242 L 10 16.662 L 10 17.162 L 16.537 7.8242 C 16.688 7.6093 16.93 7.496 17.174 7.5 C 17.32 7.5024 17.469 7.5464 17.598 7.6367 L 18.531 8.291 C 18.668 8.3868 18.762 8.5193 18.812 8.666 C 18.923 8.3522 18.817 7.9912 18.531 7.791 L 17.598 7.1367 C 17.469 7.0464 17.32 7.0024 17.174 7 z"/>
 <path style="opacity:0.1;fill:#ffffff" d="M 5 2 L 5 2.5 L 18 2.5 C 18.554 2.5 19 3.1753 19 4.0137 L 19 3.5137 C 19 2.6753 18.554 2 18 2 L 5 2 z"/>
</svg>
